storage/app/icons/phosphoricons/light/door-open-light.svg

<svg xmlns="http://www.w3.org/2000/svg" fill="currentColor" viewBox="0 0 256 256"><path d="M232 218h-26V40a14 14 0 0 0-14-14H64a14 14 0 0 0-14 14v178H24a6 6 0 0 0 0 12h208a6 6 0 0 0 0-12M194 40v178h-20V38h18a2 2 0 0 1 2 2M62 40a2 2 0 0 1 2-2h98v180H62Zm80 92a10 10 0 1 1-10-10 10 10 0 0 1 10 10"/></svg>

<svg xmlns="http://www.w3.org/2000/svg" viewBox="0 0 256 256" fill="currentColor"><path d="M232,218H206V40a14,14,0,0,0-14-14H64A14,14,0,0,0,50,40V218H24a6,6,0,0,0,0,12H232a6,6,0,0,0,0-12ZM194,40V218H174V38h18A2,2,0,0,1,194,40ZM62,40a2,2,0,0,1,2-2h98V218H62Zm80,92a10,10,0,1,1-10-10A10,10,0,0,1,142,132Z"/></svg>
